dist/svgs/lock-open.svg

<!-- Generated by IcoMoon.io -->
<svg version="1.1" xmlns="http://www.w3.org/2000/svg" width="24" height="24" viewBox="0 0 24 24">
<title>lock-open</title>
<path d="M11 17.8v1.2c0 0.6 0.4 1 1 1s1-0.4 1-1v-1.2c1.2-0.4 2-1.5 2-2.8 0-1.7-1.3-3-3-3s-3 1.3-3 3c0 1.3 0.8 2.4 2 2.8zM12 14c0.6 0 1 0.4 1 1s-0.4 1-1 1-1-0.4-1-1 0.4-1 1-1z"></path>
<path d="M20 8h-12v-2c0-2.2 1.8-4 4-4 1.6 0 3 0.9 3.7 2.4 0.2 0.5 0.8 0.7 1.3 0.5s0.7-0.8 0.5-1.3c-1-2.2-3.1-3.6-5.5-3.6-3.4 0-6 2.6-6 6v2h-2c-0.6 0-1 0.4-1 1v14c0 0.6 0.4 1 1 1h16c0.6 0 1-0.4 1-1v-14c0-0.6-0.4-1-1-1zM19 22h-14v-12h14v12z"></path>
</svg>

<svg xmlns="http://www.w3.org/2000/svg" width="24" height="24" viewBox="0 0 24 24"><title>lock-open</title><path d="M11 17.8V19c0 .6.4 1 1 1s1-.4 1-1v-1.2c1.2-.4 2-1.5 2-2.8 0-1.7-1.3-3-3-3s-3 1.3-3 3c0 1.3.8 2.4 2 2.8zm1-3.8c.6 0 1 .4 1 1s-.4 1-1 1-1-.4-1-1 .4-1 1-1z"/><path d="M20 8H8V6c0-2.2 1.8-4 4-4 1.6 0 3 .9 3.7 2.4.2.5.8.7 1.3.5s.7-.8.5-1.3C16.5 1.4 14.4 0 12 0 8.6 0 6 2.6 6 6v2H4c-.6 0-1 .4-1 1v14c0 .6.4 1 1 1h16c.6 0 1-.4 1-1V9c0-.6-.4-1-1-1zm-1 14H5V10h14v12z"/></svg>
